co/line_chart_down.svg

<svg viewBox="0 0 24 24" fill="none" xmlns="http://www.w3.org/2000/svg" height="1em" width="1em">
  <path d="M21 21H4C3.44772 21 3 20.5523 3 20V3H5V19H21V21ZM19.627 16L15.457 11.918L13.229 14.1C12.8467 14.4715 12.2383 14.4715 11.856 14.1L7 9.344L8.373 8L12.543 12.082L14.77 9.9C15.1523 9.52848 15.7607 9.52848 16.143 9.9L21 14.656L19.627 16Z" fill="black"/>
</svg>

<svg viewBox="0 0 24 24" fill="none" xmlns="http://www.w3.org/2000/svg" height="1em" width="1em">
  <path d="M21 21H4a1 1 0 0 1-1-1V3h2v16h16v2Zm-1.373-5-4.17-4.082-2.228 2.182a.985.985 0 0 1-1.373 0L7 9.344 8.373 8l4.17 4.082L14.77 9.9a.985.985 0 0 1 1.373 0L21 14.656 19.627 16Z" fill="#000"/>
</svg>
